X:80
T:Doctor Gilbert's
R:reel
Z:id:hn-reel-80
M:C|
K:Edor
eBBA ~B3c|dBA=c BAGF|EDB,D G2FG|EDB,E DB,A,2|
B,EED EDB,D|GEED EFGA|(3Bcd ed Bdgb|afdf efgf:|
|:eB~B2 gB~B2|defg afdf|g2bg fgaf|edef edBd|
afdf edBc|dBAF AFDF|EG=cA Bdgb|afdf efgf:|
<end>
<start>
